local/share/icons/dracula-icons-main/22/devices/drive-removable-media-usb.svg

<?xml version="1.0" encoding="UTF-8"?>
<svg xmlns="http://www.w3.org/2000/svg" xmlns:xlink="http://www.w3.org/1999/xlink" width="22" height="22" viewBox="0 0 22 22">
<path fill-rule="nonzero" fill="rgb(44.705882%, 44.705882%, 44.705882%)" fill-opacity="1" d="M 10.996094 3 L 8.496094 7 L 9.996094 7 L 9.996094 12 L 6.996094 12 L 6.996094 10.726562 C 7.613281 10.371094 7.992188 9.714844 7.996094 9 C 7.996094 7.894531 7.097656 7 5.996094 7 C 4.890625 7 3.996094 7.894531 3.996094 9 C 3.996094 9.714844 4.375 10.375 4.996094 10.730469 L 4.996094 12 C 4.996094 14 6.996094 14 6.996094 14 L 9.996094 14 L 9.996094 15.273438 C 9.378906 15.628906 8.996094 16.285156 8.996094 17 C 8.996094 18.105469 9.890625 19 10.996094 19 C 12.097656 19 12.996094 18.105469 12.996094 17 C 12.996094 16.285156 12.613281 15.625 11.996094 15.269531 L 11.996094 14 L 14.996094 14 C 14.996094 14 16.996094 14 16.996094 12 L 16.996094 11 C 16.996094 11 18.121094 10.8125 17.996094 10 L 17.996094 8 C 18.121094 6.875 16.996094 7 16.996094 7 L 14.996094 7 C 13.933594 7 13.996094 8 13.996094 8 L 13.996094 10 C 13.996094 11 14.996094 11 14.996094 11 L 14.996094 12 L 11.996094 12 L 11.996094 7 L 13.496094 7 Z M 10.996094 3 "/>
</svg>

<svg width="22" height="22" version="1.1" viewBox="0 0 22 22" xmlns="http://www.w3.org/2000/svg">
 <defs>
  <style id="current-color-scheme" type="text/css">.ColorScheme-Text { color:#727272; } .ColorScheme-Highlight { color:#5294e2; }</style>
 </defs>
 <path class="ColorScheme-Text" d="m10.995 3-2.5 4h1.5v5h-3v-1.2715c0.61771-0.35663 0.99874-1.0152 1-1.7285 0-1.1046-0.89543-2-2-2s-2 0.89543-2 2c5.6e-4 0.71397 0.38169 1.3735 1 1.7305v1.2695c0 2 2 2 2 2h3v1.2715c-0.61771 0.35663-0.99874 1.0152-1 1.7285 0 1.1046 0.89543 2 2 2 1.1046 0 2-0.89543 2-2-5.6e-4 -0.71397-0.38169-1.3735-1-1.7305v-1.2695h3s2 0 2-2v-1s1.125-0.1875 1-1v-2c0.125-1.125-1-1-1-1h-2c-1.0625 0-1 1-1 1v2c0 1 1 1 1 1v1h-3v-5h1.5z" fill="currentColor"/>
</svg>
